X: 14684
T: Gan Ainm
R: slip jig
M: 9/8
K: Amixolydian
c2A AcA ecA|ede aeA ~e2d|c2A AcA ecA|~BGB gdB d2z|
c2A AcA ecA|~e3 eff eed|c2A AcA ecA|BGB gdB d2z||
c2a aec aec|ce/f/a aec e2d|c2a aec aec|BGB gdB d2e|
c2a aec aec|ce/f/a aec e2d|c2a aec aec|BGB gdB d2e||

